build/icons/truck.svg

<svg xmlns="http://www.w3.org/2000/svg" width="16" height="16"><path d="M9.2 1.6c.7 0 1.2.5 1.2 1.2V4h1.3c.4 0 .8.2 1.1.5l1.9 1.9c.3.3.5.7.5 1.1v2.9c.4 0 .8.4.8.8s-.4.8-.8.8h-.8c0 1.3-1.1 2.4-2.4 2.4-1.3 0-2.4-1.1-2.4-2.4H6.4c0 1.3-1.1 2.4-2.4 2.4-1.3 0-2.4-1.1-2.4-2.4h-.4C.5 12 0 11.5 0 10.8v-8c0-.7.5-1.2 1.2-1.2h8zm1.2 4V8h3.2v-.5l-1.9-1.9h-1.3zM4 10.8c-.7 0-1.2.5-1.2 1.2s.5 1.2 1.2 1.2 1.2-.5 1.2-1.2-.5-1.2-1.2-1.2zm8 2.4c.7 0 1.2-.5 1.2-1.2s-.5-1.2-1.2-1.2-1.2.5-1.2 1.2.5 1.2 1.2 1.2z"/></svg>

<svg version="1.1" xmlns="http://www.w3.org/2000/svg" xmlns:xlink="http://www.w3.org/1999/xlink" x="0px" y="0px"
	 viewBox="0 0 16 16"  width="16" height="16">
<path d="M9.2,1.6c0.7,0,1.2,0.5,1.2,1.2V4h1.3c0.4,0,0.8,0.2,1.1,0.5l1.9,1.9c0.3,0.3,0.5,0.7,0.5,1.1v2.9
	c0.4,0,0.8,0.4,0.8,0.8S15.6,12,15.2,12h-0.8c0,1.3-1.1,2.4-2.4,2.4c-1.3,0-2.4-1.1-2.4-2.4H6.4c0,1.3-1.1,2.4-2.4,2.4
	c-1.3,0-2.4-1.1-2.4-2.4H1.2C0.5,12,0,11.5,0,10.8v-8c0-0.7,0.5-1.2,1.2-1.2H9.2z M10.4,5.6V8h3.2V7.5l-1.9-1.9H10.4z M4,10.8
	c-0.7,0-1.2,0.5-1.2,1.2s0.5,1.2,1.2,1.2s1.2-0.5,1.2-1.2S4.7,10.8,4,10.8z M12,13.2c0.7,0,1.2-0.5,1.2-1.2s-0.5-1.2-1.2-1.2
	s-1.2,0.5-1.2,1.2S11.3,13.2,12,13.2z"/>
</svg>
